X:108
%%etbk:tnset id:38,pos:2,rep:3x,ant:
%%etbk:wsite http://www.thesession.org/tunes/display/1219
%%etbk:pldat 2015-07-22T16:59,2014-03-19T19:22,2013-12-11T19:01,2013-11-13T15:53
T: Paddy Canny's
T: Geehan's
T: Eileen O'Callaghan's
Z: Piano Box Version by Martin Fleischmann
H: Created 2013-02-19 /  Last Modified 2013-02-19
M: 4/4
L: 1/8
R: reel
K: Gmaj
|: "G"!1!G2!3!B!2!G !1!D!2!G!3!B!1!G | !1!GABd "D"!4!c!1!A!2!F!4!A | "G"!1!G2!3!B!2!G !1!D!2!G!3!B!4!c | "D"!3!def!3!d !2!c!1!A!2!F!4!A |
"G"!1!G2!3!B!2!G !1!D!2!G!3!B!1!G | !1!GABd "D"!4!c!1!A!2!F!4!A  | "G"!1!G!2!B!1!B!2!B !4!d!1!B !3!(3B!2!B!1!B | "D"!3!def!3!d !2!c!1!A!2!F!4!A:|
|: "G"!1!G2!4!g!3!f !4!!3!g3g | "D"!4!a!1!d!2!fd !4!ad!3!fe | "G"!1!d!3!g{a}g!2!f !4!g2fe | "D"!1!def!1!d !3!c!1!A!2!F!4!A |
"G"!1!G2!3!gf !3!g3g | "D"!4!a3b !4!agf!1!e | "G"!1!d!3!g!2!g!3!g !5!b!3!g!2!g!3!g | "D"!1!def!1!d !3!c!1!A!2!F!4!A:|


